src/assets/icons/sliders-v.svg

<svg width="14" height="14" viewBox="0 0 14 14" fill="none" xmlns="http://www.w3.org/2000/svg">
<g id="sliders-v">
<g clip-path="url(#clip0_156_4565)">
<path id="Vector" fill-rule="evenodd" clip-rule="evenodd" d="M11.0645 0C11.4386 0 11.7419 0.303291 11.7419 0.677419V4.51613H12.4194C12.7935 4.51613 13.0968 4.81942 13.0968 5.19355C13.0968 5.56768 12.7935 5.87097 12.4194 5.87097H11.0645H9.70968C9.33555 5.87097 9.03226 5.56768 9.03226 5.19355C9.03226 4.81942 9.33555 4.51613 9.70968 4.51613H10.3871V0.677419C10.3871 0.303291 10.6904 0 11.0645 0ZM11.0645 6.32258C11.4386 6.32258 11.7419 6.62587 11.7419 7V13.3226C11.7419 13.6967 11.4386 14 11.0645 14C10.6904 14 10.3871 13.6967 10.3871 13.3226V7C10.3871 6.62587 10.6904 6.32258 11.0645 6.32258ZM2.93549 6.32258C3.30962 6.32258 3.61291 6.62587 3.61291 7V13.3226C3.61291 13.6967 3.30962 14 2.93549 14C2.56136 14 2.25807 13.6967 2.25807 13.3226V7C2.25807 6.62587 2.56136 6.32258 2.93549 6.32258ZM3.61291 0.677419C3.61291 0.303291 3.30962 0 2.93549 0C2.56136 0 2.25807 0.303291 2.25807 0.677419V4.51613H1.58065C1.20652 4.51613 0.903229 4.81942 0.903229 5.19355C0.903229 5.56768 1.20652 5.87097 1.58065 5.87097H2.93549H4.29033C4.66445 5.87097 4.96774 5.56768 4.96774 5.19355C4.96774 4.81942 4.66445 4.51613 4.29033 4.51613H3.61291V0.677419ZM7.67742 10.6129C7.67742 10.2388 7.37413 9.93548 7 9.93548C6.62587 9.93548 6.32258 10.2388 6.32258 10.6129V13.3226C6.32258 13.6967 6.62587 14 7 14C7.37413 14 7.67742 13.6967 7.67742 13.3226V10.6129ZM7 0C7.37413 0 7.67742 0.303291 7.67742 0.677419V8.12903H8.35484C8.72897 8.12903 9.03226 8.43232 9.03226 8.80645C9.03226 9.18058 8.72897 9.48387 8.35484 9.48387H7H5.64516C5.27104 9.48387 4.96774 9.18058 4.96774 8.80645C4.96774 8.43232 5.27104 8.12903 5.64516 8.12903H6.32258V0.677419C6.32258 0.303291 6.62587 0 7 0Z" fill="black"/>
</g>
</g>
<defs>
<clipPath id="clip0_156_4565">
<rect width="14" height="14" fill="white"/>
</clipPath>
</defs>
</svg>

<svg xmlns="http://www.w3.org/2000/svg" fill="none" viewBox="0 0 14 14"><g clip-path="url(#a)"><path fill="#000" fill-rule="evenodd" d="M11.065 0c.374 0 .677.303.677.677v3.84h.677a.677.677 0 0 1 0 1.354H9.71a.677.677 0 1 1 0-1.355h.677V.677c0-.374.303-.677.678-.677m0 6.323c.374 0 .677.303.677.677v6.323a.677.677 0 0 1-1.355 0V7c0-.374.303-.677.678-.677m-8.13 0c.375 0 .678.303.678.677v6.323a.677.677 0 0 1-1.355 0V7c0-.374.303-.677.677-.677M3.613.677a.677.677 0 1 0-1.355 0v3.84h-.677a.677.677 0 1 0 0 1.354H4.29a.677.677 0 0 0 0-1.355h-.677zm4.064 9.936a.677.677 0 0 0-1.354 0v2.71a.677.677 0 0 0 1.354 0zM7 0c.374 0 .677.303.677.677V8.13h.678a.677.677 0 1 1 0 1.355h-2.71a.677.677 0 0 1 0-1.355h.678V.677C6.323.303 6.626 0 7 0" clip-rule="evenodd"/></g><defs><clipPath id="a"><path fill="#fff" d="M0 0h14v14H0z"/></clipPath></defs></svg>
